humanity-icon-theme/Humanity/devices/24/pda.svg

<?xml version="1.0" encoding="UTF-8" standalone="no"?>
<!-- Created with Inkscape (http://www.inkscape.org/) -->

<svg
   xmlns:svg="http://www.w3.org/2000/svg"
   xmlns="http://www.w3.org/2000/svg"
   xmlns:xlink="http://www.w3.org/1999/xlink"
   version="1.1"
   width="24"
   height="24"
   id="svg5490">
  <defs
     id="defs5492">
    <linearGradient
       id="linearGradient3921">
      <stop
         id="stop3923"
         style="stop-color:black;stop-opacity:1"
         offset="0" />
      <stop
         id="stop3925"
         style="stop-color:black;stop-opacity:0"
         offset="1" />
    </linearGradient>
    <linearGradient
       id="linearGradient3821">
      <stop
         id="stop3823"
         style="stop-color:#6c6c6c;stop-opacity:1"
         offset="0" />
      <stop
         id="stop3825"
         style="stop-color:#a8a8a8;stop-opacity:1"
         offset="1" />
    </linearGradient>
    <linearGradient
       id="linearGradient3143">
      <stop
         id="stop3145"
         style="stop-color:#e6e6e6;stop-opacity:1"
         offset="0" />
      <stop
         id="stop3147"
         style="stop-color:#afafaf;stop-opacity:1"
         offset="1" />
    </linearGradient>
    <linearGradient
       id="linearGradient3737">
      <stop
         id="stop3739"
         style="stop-color:#121214;stop-opacity:1"
         offset="0" />
      <stop
         id="stop3741"
         style="stop-color:#393e44;stop-opacity:1"
         offset="0.0932906" />
      <stop
         id="stop3743"
         style="stop-color:#50555b;stop-opacity:1"
         offset="0.50235617" />
      <stop
         id="stop3745"
         style="stop-color:#22272d;stop-opacity:1"
         offset="0.91142172" />
      <stop
         id="stop3747"
         style="stop-color:#303438;stop-opacity:1"
         offset="1" />
    </linearGradient>
    <linearGradient
       id="linearGradient9936">
      <stop
         id="stop9938"
         style="stop-color:#575757;stop-opacity:1"
         offset="0" />
      <stop
         id="stop9940"
         style="stop-color:#333;stop-opacity:1"
         offset="1" />
    </linearGradient>
    <linearGradient
       id="linearGradient6592-2-7">
      <stop
         id="stop6594-0-2"
         style="stop-color:white;stop-opacity:0.27450982"
         offset="0" />
      <stop
         id="stop6596-2-5"
         style="stop-color:white;stop-opacity:0"
         offset="1" />
    </linearGradient>
    <filter
       color-interpolation-filters="sRGB"
       id="filter3915">
      <feGaussianBlur
         stdDeviation="0.67"
         id="feGaussianBlur3917" />
    </filter>
    <linearGradient
       id="linearGradient4647">
      <stop
         id="stop4653"
         style="stop-color:#b3b3b3;stop-opacity:1"
         offset="0" />
      <stop
         id="stop4655"
         style="stop-color:white;stop-opacity:1"
         offset="0.40689188" />
      <stop
         id="stop4657"
         style="stop-color:#f0f0f0;stop-opacity:1"
         offset="0.58682591" />
      <stop
         id="stop4659"
         style="stop-color:#999;stop-opacity:1"
         offset="1" />
    </linearGradient>
    <linearGradient
       x1="12.9375"
       y1="8.4375"
       x2="15.25"
       y2="19.8125"
       id="linearGradient2882"
       xlink:href="#linearGradient6592-2-7"
       gradientUnits="userSpaceOnUse"
       gradientTransform="matrix(0.23809525,0,0,0.39999977,6.2857146,2.8000008)" />
    <radialGradient
       cx="19.063108"
       cy="8.4179487"
       r="11"
       fx="19.063108"
       fy="8.4179487"
       id="radialGradient2885"
       xlink:href="#linearGradient9936"
       gradientUnits="userSpaceOnUse"
       gradientTransform="matrix(0.60156817,0,0,1.0150091,-2.0594605,-1.1552919)" />
    <linearGradient
       x1="13"
       y1="13"
       x2="35"
       y2="13"
       id="linearGradient2887"
       xlink:href="#linearGradient3737"
       gradientUnits="userSpaceOnUse"
       gradientTransform="matrix(0.52496631,0,0,0.93355972,-0.59919157,-1.636278)" />
    <radialGradient
       cx="12.424876"
       cy="38.049999"
       r="1.8182746"
       fx="12.424876"
       fy="38.049999"
       id="radialGradient2890"
       xlink:href="#linearGradient4647"
       gradientUnits="userSpaceOnUse"
       gradientTransform="matrix(1.0499463,0,0,1.0498231,-1.0454521,-19.945564)" />
    <linearGradient
       x1="22.487293"
       y1="2.0235677"
       x2="22.487293"
       y2="42.99675"
       id="linearGradient2894"
       xlink:href="#linearGradient3143"
       gradientUnits="userSpaceOnUse"
       gradientTransform="matrix(0.49999973,0,0,0.52473347,0.74999819,0.18816643)" />
    <linearGradient
       x1="22"
       y1="45"
       x2="22"
       y2="2"
       id="linearGradient2896"
       xlink:href="#linearGradient3821"
       gradientUnits="userSpaceOnUse"
       gradientTransform="matrix(0.48346055,0,0,0.50000002,0.39058555,0.24999991)" />
    <radialGradient
       cx="26"
       cy="42.5"
       r="19"
       fx="26"
       fy="42.5"
       id="radialGradient2899"
       xlink:href="#linearGradient3921"
       gradientUnits="userSpaceOnUse"
       gradientTransform="matrix(0.52631579,0,0,0.10526314,-1.6842106,17.526317)" />
  </defs>
  <path
     d="M 22,22 A 10,2 0 0 1 2,22 10,2 0 1 1 22,22 z"
     id="path3919"
     style="opacity:0.5;fill:url(#radialGradient2899);fill-opacity:1;stroke:none" />
  <path
     d="m 5.2142865,1.5000004 13.5714275,0 C 19.181428,1.5000004 19.5,1.842899 19.5,2.268831 l 0,18.375048 c 0,0.425932 -0.318572,0.768831 -0.714286,0.768831 0,0 -3.392856,1.08729 -6.785714,1.08729 -3.3928562,0 -6.7857135,-1.08729 -6.7857135,-1.08729 -0.3957146,0 -0.7142861,-0.342899 -0.7142861,-0.768831 l 0,-18.375048 c 0,-0.425932 0.3185715,-0.7688306 0.7142861,-0.7688306 z"
     id="rect5508"
     style="fill:url(#linearGradient2894);fill-opacity:1;stroke:url(#linearGradient2896);stroke-width:1.00000083;stroke-linecap:round;stroke-linejoin:miter;stroke-miterlimit:4;stroke-opacity:1" />
  <path
     d="m 11.333334,-20 25.333333,0 C 37.405333,-20 38,-19.363189 38,-18.572172 l 0,34.125092 c 0,0.791016 -0.594667,1.427827 -1.333333,1.427827 C 36.666667,16.980747 30.333333,19 24,19 17.666669,19 11.333334,16.980747 11.333334,16.980747 10.594667,16.980747 10,16.343936 10,15.55292 l 0,-34.125092 C 10,-19.363189 10.594667,-20 11.333334,-20 z"
     transform="matrix(0.48387869,0,0,0.50430137,0.38703132,12.161823)"
     id="path3909"
     style="opacity:0.3;fill:white;fill-opacity:1;stroke:none;filter:url(#filter3915)" />
  <path
     d="m 13.75,20.000205 a 1.75,1.7497946 0 0 1 -3.5,0 1.75,1.7497946 0 1 1 3.5,0 z"
     id="path6724"
     style="fill:url(#radialGradient2890);fill-opacity:1;stroke:#787878;stroke-width:0.49999994;stroke-linecap:round;stroke-linejoin:miter;stroke-miterlimit:4;stroke-opacity:1;stroke-dasharray:none" />
  <rect
     width="11.051137"
     height="14.051137"
     rx="0"
     ry="0"
     x="6.4744315"
     y="3.4744318"
     id="rect4140"
     style="fill:url(#radialGradient2885);fill-opacity:1;fill-rule:evenodd;stroke:url(#linearGradient2887);stroke-width:0.94886303;stroke-linecap:round;stroke-linejoin:round;stroke-miterlimit:3.42857146;stroke-opacity:1;stroke-dasharray:none;stroke-dashoffset:0;marker:none;visibility:visible;display:inline;overflow:visible;enable-background:accumulate" />
  <path
     d="M 7,4 17,4 17,7.2000013 7,10 7,4 z"
     id="rect6588"
     style="fill:url(#linearGradient2882);fill-opacity:1;stroke:none" />
  <rect
     width="3"
     height="1.0000001"
     rx="0.5"
     ry="0.5"
     x="6"
     y="19"
     id="rect3675"
     style="fill:#787878;fill-opacity:1;stroke:none" />
  <rect
     width="3"
     height="1.0000001"
     rx="0.5"
     ry="0.5"
     x="15"
     y="19"
     id="rect3677"
     style="fill:#787878;fill-opacity:1;stroke:none" />
</svg>

<?xml version="1.0" encoding="UTF-8" standalone="no"?>
<!-- Created with Inkscape (http://www.inkscape.org/) -->
<svg id="svg5490" xmlns="http://www.w3.org/2000/svg" height="24" width="24" version="1.1" xmlns:xlink="http://www.w3.org/1999/xlink">
 <defs id="defs5492">
  <filter id="filter3915" color-interpolation-filters="sRGB">
   <feGaussianBlur id="feGaussianBlur3917" stdDeviation="0.67"/>
  </filter>
  <linearGradient id="linearGradient2882" y2="19.812" gradientUnits="userSpaceOnUse" x2="15.25" gradientTransform="matrix(.23810 0 0 0.4 6.2857 2.8)" y1="8.4375" x1="12.938">
   <stop id="stop6594-0-2" style="stop-color:#fff;stop-opacity:.27451" offset="0"/>
   <stop id="stop6596-2-5" style="stop-color:#fff;stop-opacity:0" offset="1"/>
  </linearGradient>
  <radialGradient id="radialGradient2885" gradientUnits="userSpaceOnUse" cy="8.4179" cx="19.063" gradientTransform="matrix(.60157 0 0 1.015 -2.0595 -1.1553)" r="11">
   <stop id="stop9938" style="stop-color:#575757" offset="0"/>
   <stop id="stop9940" style="stop-color:#333" offset="1"/>
  </radialGradient>
  <linearGradient id="linearGradient2887" y2="13" gradientUnits="userSpaceOnUse" x2="35" gradientTransform="matrix(.52497 0 0 .93356 -.59919 -1.6363)" y1="13" x1="13">
   <stop id="stop3739" style="stop-color:#121214" offset="0"/>
   <stop id="stop3741" style="stop-color:#393e44" offset=".093291"/>
   <stop id="stop3743" style="stop-color:#50555b" offset=".50236"/>
   <stop id="stop3745" style="stop-color:#22272d" offset=".91142"/>
   <stop id="stop3747" style="stop-color:#303438" offset="1"/>
  </linearGradient>
  <radialGradient id="radialGradient2890" gradientUnits="userSpaceOnUse" cy="38.05" cx="12.425" gradientTransform="matrix(1.0499 0 0 1.0498 -1.0455 -19.946)" r="1.8183">
   <stop id="stop4653" style="stop-color:#b3b3b3" offset="0"/>
   <stop id="stop4655" style="stop-color:#fff" offset=".40689"/>
   <stop id="stop4657" style="stop-color:#f0f0f0" offset=".58683"/>
   <stop id="stop4659" style="stop-color:#999" offset="1"/>
  </radialGradient>
  <linearGradient id="linearGradient2894" y2="42.997" gradientUnits="userSpaceOnUse" x2="22.487" gradientTransform="matrix(0.5 0 0 .52473 0.75 .18817)" y1="2.0236" x1="22.487">
   <stop id="stop3145" style="stop-color:#e6e6e6" offset="0"/>
   <stop id="stop3147" style="stop-color:#afafaf" offset="1"/>
  </linearGradient>
  <linearGradient id="linearGradient2896" y2="2" gradientUnits="userSpaceOnUse" x2="22" gradientTransform="matrix(.48346 0 0 0.5 .39059 0.25)" y1="45" x1="22">
   <stop id="stop3823" style="stop-color:#6c6c6c" offset="0"/>
   <stop id="stop3825" style="stop-color:#a8a8a8" offset="1"/>
  </linearGradient>
  <radialGradient id="radialGradient2899" gradientUnits="userSpaceOnUse" cy="42.5" cx="26" gradientTransform="matrix(.52632 0 0 .10526 -1.6842 17.526)" r="19">
   <stop id="stop3923" offset="0"/>
   <stop id="stop3925" style="stop-opacity:0" offset="1"/>
  </radialGradient>
 </defs>
 <path id="path3919" style="opacity:.5;fill:url(#radialGradient2899)" d="m22 22a10 2 0 0 1 -20 0 10 2 0 1 1 20 0z"/>
 <path id="rect5508" style="stroke:url(#linearGradient2896);stroke-linecap:round;fill:url(#linearGradient2894)" d="m5.2143 1.5h13.571c0.396 0 0.715 0.3429 0.715 0.7688v18.375c0 0.42593-0.31857 0.76883-0.71429 0.76883 0 0-3.3929 1.0873-6.7857 1.0873-3.3929 0-6.7857-1.0873-6.7857-1.0873-0.39571 0-0.71429-0.3429-0.71429-0.76883v-18.375c0-0.42593 0.31857-0.76883 0.71429-0.76883z"/>
 <path id="path3909" style="opacity:.3;filter:url(#filter3915);fill:#fff" d="m11.333-20h25.333c0.739 0 1.334 0.637 1.334 1.428v34.125c0 0.79102-0.59467 1.4278-1.3333 1.4278 0 0-6.334 2.019-12.667 2.019s-12.667-2.019-12.667-2.019c-0.738 0-1.333-0.637-1.333-1.428v-34.125c0-0.791 0.595-1.428 1.333-1.428z" transform="matrix(.48388 0 0 .50430 .38703 12.162)"/>
 <path id="path6724" style="stroke:#787878;stroke-linecap:round;stroke-width:0.5;fill:url(#radialGradient2890)" d="m13.75 20a1.75 1.7498 0 0 1 -3.5 0 1.75 1.7498 0 1 1 3.5 0z"/>
 <rect id="rect4140" style="stroke-linejoin:round;stroke-width:.94886;fill-rule:evenodd;stroke:url(#linearGradient2887);stroke-linecap:round;stroke-miterlimit:3.4286;fill:url(#radialGradient2885)" rx="0" ry="0" height="14.051" width="11.051" y="3.4744" x="6.4744"/>
 <path id="rect6588" style="fill:url(#linearGradient2882)" d="m7 4h10v3.2l-10 2.8v-6z"/>
 <rect id="rect3675" style="fill:#787878" rx=".5" ry=".5" height="1" width="3" y="19" x="6"/>
 <rect id="rect3677" style="fill:#787878" rx=".5" ry=".5" height="1" width="3" y="19" x="15"/>
</svg>
